icons/clock-outline.svg

<svg xmlns="http://www.w3.org/2000/svg" width="24" height="24" viewBox="0 0 24 24">
  <path d="M12,1 C18.0751322,1 23,5.92486775 23,12 C23,18.0751322 18.0751322,23 12,23 C5.92486775,23 1,18.0751322 1,12 C1,5.92486775 5.92486775,1 12,1 Z M12,3 C7.02943725,3 3,7.02943725 3,12 C3,16.9705627 7.02943725,21 12,21 C16.9705627,21 21,16.9705627 21,12 C21,7.02943725 16.9705627,3 12,3 Z M12,6 C12.5128358,6 12.9355072,6.38604019 12.9932723,6.88337887 L13,7 L13,11.585 L16.7071068,15.2928932 C17.0976311,15.6834175 17.0976311,16.3165825 16.7071068,16.7071068 C16.3466228,17.0675907 15.7793918,17.0953203 15.3871006,16.7902954 L15.2928932,16.7071068 L11.2928932,12.7071068 L11.22,12.625 L11.1963346,12.5953066 L11.1963346,12.5953066 C11.1784901,12.5711307 11.1617187,12.546275 11.1460674,12.5206602 L11.1246712,12.4840621 L11.1246712,12.4840621 C11.1137939,12.4642939 11.1033766,12.4438914 11.0936538,12.4230991 L11.0712255,12.371336 L11.0712255,12.371336 C11.0633157,12.3515792 11.0561225,12.3317977 11.0495467,12.3117364 C11.0447287,12.2968513 11.0400977,12.2814633 11.0358451,12.265993 C11.0298336,12.2444365 11.0246398,12.2227461 11.0201652,12.2007941 C11.0167022,12.1833753 11.0136281,12.165949 11.0110178,12.1484669 C11.0094175,12.1382359 11.0079861,12.1274549 11.0067277,12.1166211 L11.0039664,12.0892501 C11.001895,12.0659949 11.0006349,12.042681 11.0001861,12.0193545 L11,7 C11,6.44771525 11.4477153,6 12,6 Z"/>
</svg>

<svg xmlns="http://www.w3.org/2000/svg" viewBox="0 0 24 24">
  <path d="M12 1a11 11 0 1 1 0 22 11 11 0 0 1 0-22zm0 2a9 9 0 1 0 0 18 9 9 0 0 0 0-18zm0 3a1 1 0 0 1 1 .88v4.71l3.7 3.7a1 1 0 0 1-1.31 1.5l-.1-.08-4-4-.07-.09-.02-.02a1.03 1.03 0 0 1-.05-.08l-.03-.04a1.04 1.04 0 0 1-.03-.06l-.02-.05a.99.99 0 0 1-.06-.25v-.03a1 1 0 0 1-.01-.07V7a1 1 0 0 1 1-1z"/>
</svg>
